64x64/apps/allegorithmic-Substance_Designer.svg

<svg xmlns="http://www.w3.org/2000/svg" width="64" height="64"><path style="opacity:.2" d="M32 6a3 3 0 0 0-3 3v2H12c-2.216 0-4 1.784-4 4v17H6a3 3 0 0 0-3 3 3 3 0 0 0 3 3h2v17c0 2.216 1.784 4 4 4h40c2.216 0 4-1.784 4-4V38h2a3 3 0 0 0 3-3 3 3 0 0 0-3-3h-2V15c0-2.216-1.784-4-4-4H35V9a3 3 0 0 0-3-3z"/><path style="fill:#f04b23" d="M32 5a3 3 0 0 0-3 3v2H12c-2.216 0-4 1.784-4 4v17H6a3 3 0 0 0-3 3 3 3 0 0 0 3 3h2v17c0 2.216 1.784 4 4 4h40c2.216 0 4-1.784 4-4V37h2a3 3 0 0 0 3-3 3 3 0 0 0-3-3h-2V14c0-2.216-1.784-4-4-4H35V8a3 3 0 0 0-3-3z"/><path style="opacity:.2" d="m32 17-16 9v8l23 8-7 4-9-5v-2l-7-2.449V45l16 9 16-9v-8l-23-8 7-4 9 5v2l7 2.502V26z"/><path style="fill:#f4f4f7" d="m32 16-16 9v8l23 8-7 4-9-5v-2l-7-2.449V44l16 9 16-9v-8l-23-8 7-4 9 5v2l7 2.502V25z"/><path style="fill:#f4f4f7;opacity:.2" d="M32 5a3 3 0 0 0-3 3v1a3 3 0 0 1 3-3 3 3 0 0 1 3 3V8a3 3 0 0 0-3-3zm-20 5c-2.216 0-4 1.784-4 4v1c0-2.216 1.784-4 4-4h17v-1H12zm23 0v1h17c2.216 0 4 1.784 4 4v-1c0-2.216-1.784-4-4-4H35zM6 31a3 3 0 0 0-3 3 3 3 0 0 0 .043.486A3 3 0 0 1 6 32h2v-1H6zm50 0v1h2a3 3 0 0 1 2.957 2.514A3 3 0 0 0 61 34a3 3 0 0 0-3-3h-2z"/></svg>

<svg xmlns="http://www.w3.org/2000/svg" width="64" height="64" version="1.1">
 <path style="opacity:0.2" d="M 32,6 A 3,3 0 0 0 29,9 V 11 H 12 C 9.784,11 8,12.784 8,15 V 32 H 6 A 3,3 0 0 0 3,35 3,3 0 0 0 6,38 H 8 V 55 C 8,57.216 9.784,59 12,59 H 52 C 54.216,59 56,57.216 56,55 V 38 H 58 A 3,3 0 0 0 61,35 3,3 0 0 0 58,32 H 56 V 15 C 56,12.784 54.216,11 52,11 H 35 V 9 A 3,3 0 0 0 32,6 Z"/>
 <path style="fill:#f04b23" d="M 32,5 A 3,3 0 0 0 29,8 V 10 H 12 C 9.784,10 8,11.784 8,14 V 31 H 6 A 3,3 0 0 0 3,34 3,3 0 0 0 6,37 H 8 V 54 C 8,56.216 9.784,58 12,58 H 52 C 54.216,58 56,56.216 56,54 V 37 H 58 A 3,3 0 0 0 61,34 3,3 0 0 0 58,31 H 56 V 14 C 56,11.784 54.216,10 52,10 H 35 V 8 A 3,3 0 0 0 32,5 Z"/>
 <path style="opacity:0.2" d="M 32,17 16,26 V 34 L 39,42 32,46 23,41 V 39 L 16,36.551 V 45 L 32,54 48,45 V 37 L 25,29 32,25 41,30 V 32 L 48,34.502 V 26 Z"/>
 <path style="fill:#f4f4f7" d="M 32,16 16,25 V 33 L 39,41 32,45 23,40 V 38 L 16,35.551 V 44 L 32,53 48,44 V 36 L 25,28 32,24 41,29 V 31 L 48,33.502 V 25 Z"/>
 <path style="fill:#f4f4f7;opacity:0.2" d="M 32 5 A 3 3 0 0 0 29 8 L 29 9 A 3 3 0 0 1 32 6 A 3 3 0 0 1 35 9 L 35 8 A 3 3 0 0 0 32 5 z M 12 10 C 9.784 10 8 11.784 8 14 L 8 15 C 8 12.784 9.784 11 12 11 L 29 11 L 29 10 L 12 10 z M 35 10 L 35 11 L 52 11 C 54.216 11 56 12.784 56 15 L 56 14 C 56 11.784 54.216 10 52 10 L 35 10 z M 6 31 A 3 3 0 0 0 3 34 A 3 3 0 0 0 3.043 34.486 A 3 3 0 0 1 6 32 L 8 32 L 8 31 L 6 31 z M 56 31 L 56 32 L 58 32 A 3 3 0 0 1 60.957 34.514 A 3 3 0 0 0 61 34 A 3 3 0 0 0 58 31 L 56 31 z"/>
</svg>
